!!!SOCIAL_FUNCTION:	songs of the elk sociey (dream societies)
!!!PDT:	1918

Specific Region: Dakotas, Minnesota, Montana, Nebraska
!!!REG: Dakotas and Montana
!!!LING_GROUP: Siouan
!!!LANG: Tone
!!!OTL@ENG: My Life Is Such
!!!ONM: No. 106
**kern
*Imale
*clefF4
*M2/4
*>[A,B,B]
*>norep[A,B]
*>A
*MM69
4g
8g
8g
=2
4g
4g
=3
4e
8e
8d
=4
2c
*>B
=5!|:
4e
8d#
8d#
=6
4e
4d#
=7
4c
(8c
8A)
=8||
*M3/4
8G
8G
8G
8E
4E
=9||
*M2/4
16c
8.c
8c
8c
=10
4d
(16d
8.c)
=11
8A
8G
8A
8G
=12
8G
8E
4E
==:|!
*-
!!!CNT: Native American -- Sioux
!!!MRD: 1911/07//-1914///
!!!OCL: Frances Densmore
!!!YOR1: Teton Sioux Music, Bulletin 61,
!!!YOR2: Bureau of American Ethnology, Smithsonian Institution
!!!PPR: Government Printing Office
!!!PPP: Washington, D.C.
!!!PDT: 1918///
!!!ENC: Craig Stuart Sapp
!!!END: 2002/03/25/
!!!EEV: 2002/03/31/
!!!AGN: Society Song/Song of the Elk Society
!!!MPN@@SIO: Oku'te
!!!MPN@ENG: Shooter
!!!TXO: Teton Sioux
!!!MLC: Standing Rock Reservation, South Dakota, United States of America
!!!ARL: 45.9/-100.7#
!!!catalog: Catalogue No. 575
!!!PPG: 296
!!!EFL: 106/245
!!!VTS: 3032179224
